X:1
T:Crucifixion
T:E minor            Asahel Benham, 1792
T:Transcribed from Benham's Federal Harmony, 1793.
T:Isaac Watts, 1719 (Psalm 16, Part 5)                     86. 86. (C. M.)
%%score [ 1 2 3 4 ]
L:1/8
Q:1/4=120
M:4/4
K:G
V:1 treble nm="Tr." snm="Tr."
V:2 treble nm="C." snm="C."
V:3 treble-8 nm="T." snm="T."
V:4 bass nm="B." snm="B."
V:1
"_2. When shall my feet arise and stand   On  heaven's    e–ter–nal  hills?                                   There sits the Son at God's right hand, And there the Father smiles, And  there  the  Father smiles.""_1.  Je–sus, whom every  saint adores,  Was cru  –  ci  – fied and slain:                                     Be–hold, the tomb its prey      restores! Behold, he lives again, Be–hold,   he  lives    a   –   gain!" B4 B2 B2 | %1
 B4 d4 | B2 c2 A4- | A4 B4 | (e3 d B2) G2 | A4 A4 | B8 | z8 | z8 | z4 d4 | d2 d2 d2 d2 | %11
 (B3 A B2) d2 | B2 E2 A2 A2 | B2 d2 d2 B2 | (e2 g2 f2) d2 | B4 B4 | B8 |] %17
V:2
"_1.  Je–sus, whom every  saint adores,  Was cru  –  ci  – fied and slain:                                                             Be–hold, the tomb its prey       re –  stores!     Be – hold,   he  lives    a   –   gain!""_2. When shall my feet arise and stand   On  heaven's    e–ter–nal  hills?                                                            There sits the Son at God's       right   hand,     And  there  the  Fa  –  ther  smiles." E4 G2 F2 | %1
 G4 A4 | B2 AG [FA]4- | [FA]4 G4 | (E3 F G2) E2 | A4 D4 | [DF]8 | z8 | z8 | z8 | z4 B4 | %11
 B2 B2 B2 B2 | B4 A4 | G6 F2 | (G2 E2 F2) B2 | B4 (3(B,2 C2 D2) | E8 |] %17
V:3
"_1.  Je–sus, whom every  saint adores,  Was cru  –  ci  – fied and slain:                   Be–hold, the tomb its prey    re – stores!      Behold,  he  lives  again,      Be – hold,     he   lives  a   –  gain!""_2. When shall my feet arise and stand   On  heaven's    e–ter–nal  hills?                  There  sits  the  Son  at  God's  right hand,  And there the Father smiles,  And  there    the   Fa – ther  smiles." B4 e2 ^d2 | %1
 e4 f4 | g2 e2 d4- | d4 B4 | (c3 d e2) g2 | d4 f4 | B8 | z8 | z4 d4 | d2 d2 d2 d2 | (B3 A B2) d2 | %11
 (e3 f g2) B2 | d2 d>e d2 A2 | B6 d2 | (B2 c2 A2) B2 | G4 F4 | E8 |] %17
V:4
 E,4 E,2 B,,2 | E,4 A,4 | G,2 A,2 D,4- | D,4 G,4 | (A,4 B,2) C2 | D4 D,4 | B,,8 | %7
 z4"_2. There sits the Son at God's right hand,      There  sits  the  Son at God's right hand,     And  there   the  Fa –  ther  smiles.""_1. Be–hold, the tomb its prey re–stores!       Behold, the tomb its prey   re  – stores!      Be – hold,    he  lives  a   –   gain!" G,4 | %8
 G,2 G,2 G,2 G,2 | G,4 D,4 | B,,6 B,,2 | E,3 D, G,2 G,2 | B,,4 D,4 | G,6 D,2 | (E,2 C,2 D,2) B,,2 | %15
 B,,4 B,,4 | E,8 |] %17

